svgs/sharp-regular/sensor-on.svg

<svg xmlns="http://www.w3.org/2000/svg" viewBox="0 0 640 512"><!--! Font Awesome Pro 6.6.0 by @fontawesome - https://fontawesome.com License - https://fontawesome.com/license (Commercial License) Copyright 2024 Fonticons, Inc. --><path d="M400 80l0 352L48 432 48 80l352 0zM48 32L0 32 0 80 0 432l0 48 48 0 352 0 48 0 0-48 0-352 0-48-48 0L48 32zm96 96l-48 0 0 24 0 112 0 24 48 0 0-24 0-112 0-24zm96 0l-48 0 0 24 0 112 0 24 48 0 0-24 0-112 0-24zm357.3-20l20-13.3L590.7 54.7 570.7 68l-48 32-20 13.3 26.6 39.9 20-13.3 48-32zM536 232l-24 0 0 48 24 0 80 0 24 0 0-48-24 0-80 0zm13.3 140l-20-13.3-26.6 39.9 20 13.3 48 32 20 13.3 26.6-39.9-20-13.3-48-32z"/></svg>

<svg xmlns="http://www.w3.org/2000/svg" viewBox="0 0 640 512"><!--! Font Awesome Pro 6.4.0 by @fontawesome - https://fontawesome.com License - https://fontawesome.com/license (Commercial License) Copyright 2023 Fonticons, Inc. --><path d="M400 80V432H48V80H400zM48 32H0V80 432v48H48 400h48V432 80 32H400 48zm96 96H96v24V264v24h48V264 152 128zm96 0H192v24V264v24h48V264 152 128zm357.3-20l20-13.3L590.7 54.7 570.7 68l-48 32-20 13.3 26.6 39.9 20-13.3 48-32zM536 232H512v48h24 80 24V232H616 536zm13.3 140l-20-13.3-26.6 39.9 20 13.3 48 32 20 13.3 26.6-39.9-20-13.3-48-32z"/></svg>
